X: 6
T: Josefin's
R: waltz
M: 3/4
L: 1/8
K: Dmaj
|: A2 d2 e2 | f2 a2 g2 | f2 e2 d2 | A4 B2 | G3 G G2 | B2 d2 c2 | B6 | A6 |
A2 d2 e2 | f2 a2 g2 | f2 e2 d2 | A4 B2 | G3 G G2 | A2 c2 d2 | e6- |[1 e6 :|[2 e2 ||
|: F2 G2 |A2 F2 A2 | d4 c2 | B6 | A6 | G2 B2 A2 | G2 D2 E2 | F3 G F2 | E2 F2 G2 |
A2 F2 A2 | d4 c2 | B6 | A6 | G2 B2 A2 | G2 D2 E2 | F3 G F2 | E2 F2 G2 |
F2 E2 D2 |c4 d2 | d6 | G2 A2 G2 | F2 A2 d2 | c3 B c2 | d6- |[1 d2 :|[2 d6 |]


Tune 1016	Setting 14237

